dist/svgs/crypto-icons/icons/rdd.svg

<?xml version="1.0" encoding="UTF-8" standalone="yes"?>
<svg xmlns="http://www.w3.org/2000/svg" xmlns:xlink="http://www.w3.org/1999/xlink" width="512px" height="512px" viewBox="0 0 384 384" version="1.1">
  <g id="surface1">
    <path style=" stroke:none;fill-rule:nonzero;fill:rgb(0%,0%,0%);fill-opacity:1;" d="M 282.671875 96.59375 C 295.1875 109.109375 305.339844 122.8125 312.613281 133.46875 L 314.644531 133.46875 C 352.703125 133.46875 383.660156 104.375 383.660156 68.34375 C 383.660156 32.308594 352.875 3.214844 314.644531 3.214844 C 277.425781 3.214844 246.976562 31.125 245.792969 65.972656 C 255.773438 73.078125 269.476562 83.398438 282.671875 96.59375 Z M 117.90625 368.945312 C 130.425781 373.679688 143.449219 377.0625 156.984375 378.925781 L 142.097656 347.628906 Z M 209.085938 109.449219 L 198.9375 15.730469 C 193.691406 15.226562 188.277344 15.054688 182.695312 15.054688 C 118.921875 15.054688 62.929688 47.703125 30.109375 97.097656 L 58.867188 156.984375 Z M 144.464844 335.789062 L 226 263.726562 L 209.929688 116.890625 L 62.082031 163.75 Z M 144.464844 335.789062 "/>
    <path style=" stroke:none;fill-rule:nonzero;fill:rgb(0%,0%,0%);fill-opacity:1;" d="M 358.289062 146.496094 C 357.101562 142.773438 355.917969 138.882812 354.566406 135.160156 C 348.984375 138.207031 343.0625 140.742188 336.804688 142.433594 C 338.324219 145.480469 339.511719 147.847656 340.1875 149.539062 C 341.203125 151.738281 340.355469 154.277344 338.324219 155.628906 L 326.144531 164.089844 C 325.300781 164.765625 324.285156 164.933594 323.269531 164.933594 C 322.933594 164.933594 322.59375 164.933594 322.085938 164.765625 C 320.734375 164.425781 319.550781 163.582031 318.703125 162.394531 C 312.953125 152.246094 296.882812 126.363281 274.382812 103.867188 C 251.714844 81.199219 227.863281 65.972656 218.726562 60.558594 C 216.527344 59.375 215.683594 56.667969 216.527344 54.46875 L 221.097656 42.121094 C 221.605469 40.769531 222.617188 39.753906 223.972656 39.078125 C 225.324219 38.570312 226.679688 38.570312 228.03125 39.078125 C 230.398438 40.089844 233.613281 41.613281 237.675781 43.980469 C 239.875 37.722656 242.917969 31.972656 246.640625 26.558594 C 233.785156 21.820312 220.417969 18.4375 206.378906 16.578125 L 232.597656 257.804688 Z M 147.679688 342.554688 L 165.609375 379.941406 C 171.363281 380.449219 177.113281 380.785156 182.863281 380.785156 C 201.980469 380.785156 220.417969 377.910156 237.84375 372.328125 L 227.015625 272.351562 Z M 233.445312 266.601562 L 244.609375 369.960938 C 315.152344 344.585938 365.5625 277.089844 365.5625 197.921875 C 365.5625 182.863281 363.699219 168.148438 360.316406 154.277344 Z M 25.710938 104.375 C 13.027344 125.6875 4.566406 149.710938 1.351562 175.421875 L 51.933594 159.351562 Z M 55.148438 165.949219 L 0.675781 183.203125 C 0.339844 188.109375 0 193.015625 0 197.921875 C 0 273.199219 45.503906 337.820312 110.464844 365.898438 L 138.714844 340.863281 Z M 55.148438 165.949219 "/>
  </g>
</svg>

<svg xmlns="http://www.w3.org/2000/svg" viewBox="0 0 384 384"><path d="M282.672 96.594c12.515 12.515 22.668 26.219 29.941 36.875h2.032c38.058 0 69.015-29.094 69.015-65.125 0-36.035-30.785-65.13-69.015-65.13-37.22 0-67.668 27.911-68.852 62.759 9.98 7.105 23.684 17.425 36.879 30.62zM117.906 368.945c12.52 4.735 25.543 8.118 39.078 9.98l-14.886-31.296zm91.18-259.496L198.937 15.73c-5.246-.503-10.66-.675-16.242-.675-63.773 0-119.765 32.648-152.586 82.043l28.758 59.886zm-64.621 226.34L226 263.727 209.93 116.89 62.082 163.75zm0 0"/><path d="M358.29 146.496c-1.188-3.723-2.372-7.613-3.724-11.336-5.582 3.047-11.503 5.582-17.761 7.274 1.52 3.046 2.707 5.414 3.382 7.105 1.016 2.2.168 4.738-1.863 6.09l-12.18 8.46c-.843.677-1.859.845-2.874.845-.336 0-.676 0-1.184-.168-1.352-.34-2.535-1.184-3.383-2.371-5.75-10.149-21.82-36.032-44.32-58.528-22.668-22.668-46.52-37.894-55.656-43.308-2.2-1.184-3.043-3.891-2.2-6.09l4.57-12.348c.508-1.351 1.52-2.367 2.876-3.043a5.597 5.597 0 014.058 0c2.367 1.012 5.582 2.535 9.645 4.902 2.199-6.257 5.242-12.007 8.965-17.421-12.856-4.739-26.223-8.122-40.262-9.98l26.219 241.226zM147.68 342.555l17.93 37.386c5.753.508 11.503.844 17.253.844 19.117 0 37.555-2.875 54.98-8.457l-10.827-99.976zm85.765-75.953L244.61 369.96c70.543-25.375 120.953-92.871 120.953-172.04a184.64 184.64 0 00-5.246-43.644zM25.711 104.375c-12.684 21.313-21.145 45.336-24.36 71.047l50.583-16.07zm29.437 61.574L.676 183.203C.34 188.11 0 193.016 0 197.922c0 75.277 45.504 139.898 110.465 167.976l28.25-25.035zm0 0"/></svg>
